X:1
T:L. A., 1749; amended in Liverpool Collection, 1763 (Psalm 147)   86. 86. (C. M.)
T:C Major Oliver Holden, 1800
T:Evening Hymn No copyright. Transcribed from Plain Psalmody, 1800.
%%score [ 1 2 3 4 ]
L:1/8
M:3/4
K:C
V:1 treble nm="Treble" snm="Tr."
V:2 treble nm="Counter" snm="C."
V:3 treble-8 nm="Tenor" snm="T."
V:4 bass nm="Bass" snm="B."
V:1
 c2 G2 | d2 B2 G2 | A2 G2 F2 | E4 G2 | c2 d2 ec | B4 A2 | G4 c2 ||[M:4/4] B2 B2 d2 d2 | %8
 c2 c2 e3 e | f2 e2 d2 c2 | d6 cd | (e2 f2 g2) fe | d6 d2 | c8 |] %14
V:2
 E2 E2 | F2 G2 D2 | E4 D2 | E4 E2 | D4 D2 | D4 ^F2 | G4 G2 ||[M:4/4] G2 G2 G2 G2 | G2 E2 G3 G | %9
w: 1.~Now may|soft slum- bers|close my|eyes, From|pain and|sick- ness|free; And|let my wak- ing|thoughts a- rise to|
 F2 E2 D2 C2 | G6 F2 | (E2 D2 E2) F2 | G6 F2 | E8 |] %14
w: med- i- tate on|Thee, To|med- * * i-|tate on|Thee.|
V:3
 G2 c2 | B2 d2 B2 | c4 B2 | c4 c2 | A2 B2 c2 | d4 c2 | B4 e2 ||[M:4/4] d2 d2 f2 f2 | e2 e2 c3 c | %9
 B2 c2 B2 A2 | B6 c2 | (c2 B2 c2) d2 | B6 B2 | c8 |] %14
V:4
 C,2 E,2 | G,2 G,2 G,2 | C,4 G,,2 | C,4 E,2 | D,4 D,2 | D,4 D,2 | G,4 C,2 || %7
[M:4/4] G,2 G,2 G,2 G,2 | E,2 C,2 C3 C | D2 C2 B,2 A,2 | G,6 G,2 | (E,2 D,2 E,2) F,2 | G,6 G,2 | %13
 C,8 |] %14

